docs/img/svg/logo-light.svg

<svg width="251" height="91" viewBox="0 0 251 91" fill="none" xmlns="http://www.w3.org/2000/svg">
<path fill-rule="evenodd" clip-rule="evenodd" d="M21.6509 32.9077H0.359863V1.0376C7.45523 1.0376 14.5555 1.0376 21.6509 1.0376V32.9077Z" fill="#ffffff"/>
<path fill-rule="evenodd" clip-rule="evenodd" d="M48.8789 81.8774C56.0926 81.8774 63.3063 81.8774 70.4017 81.8774V54.0303H48.8789V81.8774Z" fill="#ffffff"/>
<path fill-rule="evenodd" clip-rule="evenodd" d="M0.359863 81.9949H7.80532L36.6306 54.0303H0.359863V81.9949Z" fill="#ffffff"/>
<path fill-rule="evenodd" clip-rule="evenodd" d="M70.4014 0.694946H62.8376L29.6338 32.9076H70.4014V0.694946Z" fill="#ffffff"/>
<path fill-rule="evenodd" clip-rule="evenodd" d="M94.9716 54.0303L83.4287 78.8774V81.8774H104.991C104.991 78.4614 104.991 75.0502 104.991 71.6195C107.52 71.6195 109.966 71.6195 112.446 71.6195C112.446 75.0453 112.446 78.4565 112.446 81.8774H114.512C114.512 80.3603 114.517 78.848 114.507 77.3309C114.488 71.1741 114.448 65.0125 114.419 58.8509C114.419 58.66 114.419 58.4643 114.419 58.2147C114.897 58.2147 116.568 58.2147 118.694 58.2147V82.0096H120.4V58.2147C120.903 58.2147 121.42 58.2147 121.938 58.2147V82.0096H123.644V58.2147C123.876 58.2147 124.108 58.2147 124.334 58.2147C124.61 58.1755 124.892 58.1951 125.182 58.1951V82.0096H126.888V58.2147C127.431 58.2147 127.944 58.2147 128.427 58.2147V82.0096H130.133V58.2147C130.345 58.2147 130.532 58.2147 130.71 58.2147C130.71 58.2098 130.71 58.2 130.71 58.1951C131.952 58.1951 133.116 58.1951 134.28 58.1951C134.393 58.1951 134.507 58.2147 134.649 58.2245C134.649 66.1088 134.649 73.9882 134.649 81.8774H136.75C136.75 78.4712 136.75 75.06 136.75 71.6195C139.053 71.6195 141.321 71.6195 143.668 71.6195C143.668 75.06 143.668 78.4663 143.668 81.8774H165.802V78.8774L154.225 54.0303H94.9716Z" fill="#ffffff"/>
<path fill-rule="evenodd" clip-rule="evenodd" d="M124.32 10.3412C123.822 10.6887 123.407 10.9823 122.895 11.3445C123.92 11.9513 124.778 11.9562 125.764 11.3347C125.247 10.9774 124.793 10.6642 124.32 10.3412Z" fill="#ffffff"/>
<path fill-rule="evenodd" clip-rule="evenodd" d="M127.14 8.53027C126.479 8.95606 125.956 9.29375 125.311 9.70974C125.71 10.1894 125.567 10.7766 126.095 11.1339C126.957 10.4781 127.253 9.67548 127.14 8.53027Z" fill="#ffffff"/>
<path fill-rule="evenodd" clip-rule="evenodd" d="M122.391 30.857C122.549 30.1278 122.549 29.3692 122.603 28.6204C122.751 26.6628 122.875 24.7101 123.037 22.7524C123.185 20.9465 123.373 19.1357 123.535 17.3298C123.619 16.3804 123.683 15.4309 123.762 14.4815C123.797 14.0949 123.767 13.7425 123.412 13.4586C123.304 13.3754 123.21 13.1993 123.225 13.0769C123.279 12.5532 122.949 12.2841 122.505 12.0638C122.396 12.01 122.303 11.9268 122.204 11.8534C120.794 10.8207 120.483 8.95122 121.918 7.5662C121.819 7.88921 121.731 8.19264 121.647 8.49118C122.293 8.51565 122.944 8.54501 123.644 8.56948C123.871 7.98709 124.078 7.45364 124.344 6.77337C124.531 7.26767 124.694 7.62493 124.793 7.99199C124.901 8.3933 125.133 8.57927 125.591 8.5597C126.03 8.53523 126.464 8.5548 126.982 8.5548C126.933 8.2269 126.898 7.99199 126.854 7.74239C128.086 8.9659 127.943 10.8599 126.267 11.9611C125.779 12.2841 125.37 12.5826 125.404 13.1895C125.409 13.2922 125.35 13.4391 125.261 13.4978C124.729 13.8648 124.862 14.3494 124.921 14.8388C125.024 15.7295 125.118 16.6153 125.187 17.506C125.34 19.4636 125.453 21.4213 125.616 23.374C125.769 25.2435 125.961 27.1082 126.134 28.9728C126.208 29.7754 126.272 30.5829 126.341 31.3856C126.385 31.9141 126.292 32.4182 126.119 32.9076H144.378L129.038 0H120.079L104.789 32.9076H122.549C122.308 32.2518 122.229 31.5813 122.391 30.857Z" fill="#ffffff"/>
<path fill-rule="evenodd" clip-rule="evenodd" d="M121.642 8.50586C121.218 9.41126 121.686 10.5907 122.746 11.1389C122.924 10.6495 123.096 10.1796 123.274 9.68043C122.697 9.26444 122.164 8.8876 121.642 8.50586Z" fill="#ffffff"/>
<path fill-rule="evenodd" clip-rule="evenodd" d="M197.797 1.0376H176.501V32.9077H197.797V1.0376Z" fill="#ffffff"/>
<path fill-rule="evenodd" clip-rule="evenodd" d="M242.707 1.0376H221.416V32.9077H242.707V1.0376Z" fill="#ffffff"/>
<path fill-rule="evenodd" clip-rule="evenodd" d="M242.707 63.9799V54.0303H221.416V62.8249H197.797V54.0303H176.501V81.8774H233.866V91H250.966V63.9799H242.707Z" fill="#ffffff"/>
<path fill-rule="evenodd" clip-rule="evenodd" d="M199.087 35.4744C199.433 35.8283 199.943 36.0003 200.627 36.0003C201.325 36.0003 201.855 35.8234 202.211 35.4695C202.573 35.1206 202.756 34.6291 202.756 34H201.538C201.513 34.3195 201.429 34.5357 201.28 34.6537C201.132 34.7716 200.914 34.8306 200.627 34.8306C200.344 34.8306 200.141 34.7716 200.008 34.6537C199.874 34.5357 199.795 34.3195 199.775 34H198.537C198.557 34.634 198.74 35.1255 199.087 35.4744Z" fill="#ffffff"/>
<path fill-rule="evenodd" clip-rule="evenodd" d="M3.73356 43.6576L4.54563 40.5662V49.4472H6.54115V36.8113H4.14455L2.5105 42.0259L1.7826 44.8126V36.8113H0V49.4472H2.04999L3.73356 43.6576Z" fill="#ffffff"/>
<path fill-rule="evenodd" clip-rule="evenodd" d="M14.0231 49.4472V36.8113H12.0276V42.2323H9.7548V36.8113H7.75928V49.4472H9.7548V44.036H12.0276V49.4472H14.0231Z" fill="#ffffff"/>
<path fill-rule="evenodd" clip-rule="evenodd" d="M21.0693 38.3594H21.8121C22.8024 38.3594 23.5501 38.6298 24.0502 39.1606C24.5504 39.6914 24.8029 40.463 24.8029 41.4754V44.906C24.8029 45.9135 24.5504 46.6851 24.0502 47.2159C23.5501 47.7467 22.8024 48.0072 21.8121 48.0072H21.0693V49.4472H19.0738V48.0072H18.3311C17.3407 48.0072 16.598 47.7467 16.0979 47.2159C15.5977 46.6851 15.3452 45.9135 15.3452 44.906V41.4754C15.3452 40.463 15.5977 39.6914 16.0979 39.1606C16.598 38.6298 17.3407 38.3594 18.3311 38.3594H19.0738V36.8113H21.0693V38.3594ZM19.0738 40.0796H18.3311C18.0043 40.0796 17.7567 40.1779 17.5933 40.3745C17.4249 40.5711 17.3457 40.8856 17.3457 41.3231V45.0239C17.3457 45.8693 17.6725 46.2919 18.3311 46.2919H19.0738V40.0796ZM21.0693 40.0796V46.2919H21.8071C22.4707 46.2919 22.8024 45.8693 22.8024 45.0239V41.3231C22.8024 40.4925 22.4707 40.0796 21.8071 40.0796H21.0693Z" fill="#ffffff"/>
<path fill-rule="evenodd" clip-rule="evenodd" d="M26.7238 48.7591C26.199 48.2037 25.9365 47.4223 25.9365 46.4148V39.8437C25.9365 38.8312 26.199 38.0498 26.7238 37.4993C27.2487 36.9439 27.9964 36.6687 28.9768 36.6687C29.9573 36.6687 30.705 36.9439 31.2249 37.4993C31.7448 38.0498 32.0073 38.8312 32.0073 39.8437V46.4148C32.0073 47.4223 31.7448 48.2037 31.2249 48.7591C30.705 49.3096 29.9573 49.5848 28.9768 49.5848C27.9964 49.5848 27.2487 49.3096 26.7238 48.7591ZM27.932 46.5376C27.932 47.3731 28.2836 47.7909 28.9768 47.7909C29.6651 47.7909 30.0117 47.3731 30.0117 46.5376V39.7208C30.0117 38.8902 29.6651 38.4773 28.9768 38.4773C28.2836 38.4773 27.932 38.8902 27.932 39.7208V46.5376Z" fill="#ffffff"/>
<path fill-rule="evenodd" clip-rule="evenodd" d="M38.4747 37.6124C38.9748 38.1481 39.2274 38.9246 39.2274 39.9371V41.5786C39.2274 42.596 38.9748 43.3676 38.4747 43.8984C37.9795 44.4292 37.2368 44.6946 36.2465 44.6946H35.3007V49.4472H33.3052V36.8113H36.2465C37.2318 36.8113 37.9746 37.0767 38.4747 37.6124ZM37.2269 39.8044C37.2269 39.3719 37.1477 39.0672 36.9892 38.8853C36.8308 38.7084 36.5832 38.615 36.2514 38.615H35.3007V42.9007H36.2514C36.5832 42.9007 36.8308 42.8073 36.9892 42.6255C37.1477 42.4436 37.2269 42.134 37.2269 41.7015V39.8044Z" fill="#ffffff"/>
<path fill-rule="evenodd" clip-rule="evenodd" d="M44.3917 45.8103L42.9111 36.8113H40.1382V49.4472H41.8762V40.5318L43.3716 49.4472H45.2632L46.6447 40.3893V49.4472H48.6452V36.8113H45.7633L44.3917 45.8103Z" fill="#ffffff"/>
<path fill-rule="evenodd" clip-rule="evenodd" d="M51.4876 36.8113H54.5725L56.5978 49.4472H54.5973L54.2507 47.1569H51.8045L51.4579 49.4472H49.4624L51.4876 36.8113ZM52.062 45.4367H53.9882L53.0227 39.077L52.062 45.4367Z" fill="#ffffff"/>
<path fill-rule="evenodd" clip-rule="evenodd" d="M64.5153 51.1478V47.673H63.6438V36.8113H61.6483V47.6386H59.3755V36.8113H57.375V49.4472H62.5148V51.1478H64.5153Z" fill="#ffffff"/>
<path fill-rule="evenodd" clip-rule="evenodd" d="M68.1546 42.0259L67.4267 44.8126V36.8113H65.6392V49.4472H67.6892L69.3777 43.6576L70.1848 40.5662V49.4472H72.1803V36.8113H69.7837L68.1546 42.0259Z" fill="#ffffff"/>
<path fill-rule="evenodd" clip-rule="evenodd" d="M78.5184 37.4993C79.0383 38.0498 79.3007 38.8312 79.3007 39.8437V46.4148C79.3007 47.4223 79.0383 48.2037 78.5184 48.7591C77.9984 49.3096 77.2507 49.5848 76.2703 49.5848C75.2948 49.5848 74.5422 49.3096 74.0173 48.7591C73.4924 48.2037 73.23 47.4223 73.23 46.4148V39.8437C73.23 38.8312 73.4924 38.0498 74.0173 37.4993C74.5422 36.9439 75.2948 36.6687 76.2703 36.6687C77.2507 36.6687 77.9984 36.9439 78.5184 37.4993ZM77.3052 39.7208C77.3052 38.8902 76.9586 38.4773 76.2703 38.4773C75.5771 38.4773 75.2255 38.8902 75.2255 39.7208V46.5376C75.2255 47.3731 75.5771 47.7909 76.2703 47.7909C76.9586 47.7909 77.3052 47.3731 77.3052 46.5376V39.7208Z" fill="#ffffff"/>
<path fill-rule="evenodd" clip-rule="evenodd" d="M84.8665 49.4472H86.867V36.8113H84.8665V42.2323H82.5937V36.8113H80.5981V49.4472H82.5937V44.036H84.8665V49.4472Z" fill="#ffffff"/>
<path fill-rule="evenodd" clip-rule="evenodd" d="M90.3529 44.036H92.6258V49.4472H94.6213V36.8113H92.6258V42.2323H90.3529V36.8113H88.3574V49.4472H90.3529V44.036Z" fill="#ffffff"/>
<path fill-rule="evenodd" clip-rule="evenodd" d="M96.7307 48.7591C96.2058 48.2037 95.9434 47.4223 95.9434 46.4148V39.8437C95.9434 38.8312 96.2058 38.0498 96.7307 37.4993C97.2556 36.9439 98.0082 36.6687 98.9837 36.6687C99.9641 36.6687 100.712 36.9439 101.232 37.4993C101.757 38.0498 102.014 38.8312 102.014 39.8437V46.4148C102.014 47.4223 101.757 48.2037 101.232 48.7591C100.712 49.3096 99.9641 49.5848 98.9837 49.5848C98.0082 49.5848 97.2556 49.3096 96.7307 48.7591ZM97.9438 46.5376C97.9438 47.3731 98.2905 47.7909 98.9837 47.7909C99.672 47.7909 100.019 47.3731 100.019 46.5376V39.7208C100.019 38.8902 99.672 38.4773 98.9837 38.4773C98.2905 38.4773 97.9438 38.8902 97.9438 39.7208V46.5376Z" fill="#ffffff"/>
<path fill-rule="evenodd" clip-rule="evenodd" d="M106.852 42.2323H103.222V44.036H106.852V42.2323Z" fill="#ffffff"/>
<path fill-rule="evenodd" clip-rule="evenodd" d="M109.714 36.8113H112.799L114.824 49.4472H112.829L112.482 47.1569H110.031L109.684 49.4472H107.689L109.714 36.8113ZM110.294 45.4367H112.22L111.254 39.077L110.294 45.4367Z" fill="#ffffff"/>
<path fill-rule="evenodd" clip-rule="evenodd" d="M121.875 49.4472V36.8113H119.875V42.2323H117.602V36.8113H115.606V49.4472H117.602V44.036H119.875V49.4472H121.875Z" fill="#ffffff"/>
<path fill-rule="evenodd" clip-rule="evenodd" d="M124.866 36.8113H127.951L128.679 41.3427L129.976 49.4472H127.981L127.634 47.1569H125.183L124.836 49.4472H122.841L124.866 36.8113ZM125.445 45.4367H127.372L126.525 39.8732L126.406 39.077L126.307 39.7159L125.445 45.4367Z" fill="#ffffff"/>
<path fill-rule="evenodd" clip-rule="evenodd" d="M130.521 49.462C131.115 49.462 131.6 49.3637 132.001 49.1917C132.274 49.0737 132.516 48.9213 132.7 48.7247C133.15 48.2284 133.393 47.4076 133.428 46.2575L133.65 38.615H135.383V49.4472H137.379V36.8113H131.655L131.432 46.3607C131.422 46.6556 131.392 46.8866 131.353 47.0586C131.313 47.2307 131.239 47.3584 131.135 47.4518C131.031 47.5403 130.912 47.5993 130.778 47.6189C130.645 47.6435 130.452 47.6582 130.209 47.6582V49.462H130.521Z" fill="#ffffff"/>
<path fill-rule="evenodd" clip-rule="evenodd" d="M145.475 49.4472V36.8113H143.078L141.444 42.0259L140.716 44.8126V36.8113H138.934V49.4472H140.984L142.672 43.6576L143.479 40.5662V49.4472H145.475Z" fill="#ffffff"/>
<path fill-rule="evenodd" clip-rule="evenodd" d="M148.199 49.4472H150.199V38.615H152.294V36.8113H146.104V38.615H148.199V49.4472Z" fill="#ffffff"/>
<path fill-rule="evenodd" clip-rule="evenodd" d="M156.899 43.6576L157.706 40.5662V49.4472H159.706V36.8113H157.31L155.676 42.0259L154.948 44.8126V36.8113H153.165V49.4472H155.215L156.899 43.6576Z" fill="#ffffff"/>
<path fill-rule="evenodd" clip-rule="evenodd" d="M164.994 41.9374C164.994 42.3552 164.905 42.6746 164.722 42.9007C164.539 43.1219 164.281 43.2349 163.955 43.2349C163.618 43.2349 163.341 43.1268 163.123 42.9155C162.905 42.7041 162.791 42.3994 162.791 41.9915V36.8113H160.795V42.1586C160.795 43.0482 161.008 43.751 161.439 44.2719C161.87 44.7978 162.484 45.0583 163.281 45.0583C163.573 45.0583 163.875 44.9944 164.202 44.8715C164.524 44.7487 164.786 44.5767 164.994 44.3506V49.4472H166.995V36.8113H164.994V41.9374Z" fill="#ffffff"/>
<path fill-rule="evenodd" clip-rule="evenodd" d="M168.456 49.4472H173.907V47.6386H170.456V43.9377H173.199V42.1389H170.456V38.615H173.907V36.8113H168.456V49.4472Z" fill="#ffffff"/>
<path fill-rule="evenodd" clip-rule="evenodd" d="M180.236 48.764C180.776 48.2136 181.043 47.4321 181.043 46.4148V44.7339H179.047V46.5376C179.047 47.3584 178.701 47.7712 178.013 47.7712C177.314 47.7712 176.968 47.3584 176.968 46.5376V39.7208C176.968 38.8902 177.314 38.4773 178.013 38.4773C178.701 38.4773 179.047 38.8902 179.047 39.7208V41.0773H181.043V39.8437C181.043 38.8263 180.776 38.0448 180.236 37.4944C179.701 36.9439 178.938 36.6687 177.963 36.6687C176.983 36.6687 176.24 36.9439 175.73 37.4944C175.225 38.0448 174.972 38.8263 174.972 39.8437V46.4148C174.972 47.4321 175.225 48.2136 175.73 48.764C176.24 49.3096 176.983 49.5848 177.963 49.5848C178.938 49.5848 179.701 49.3096 180.236 48.764Z" fill="#ffffff"/>
<path fill-rule="evenodd" clip-rule="evenodd" d="M186.767 36.8113L184.153 42.3159V36.8113H182.152V49.4472H184.153V45.5694L184.772 44.4145L186.718 49.4472H188.768L185.99 42.4436L188.768 36.8113H186.767Z" fill="#ffffff"/>
<path fill-rule="evenodd" clip-rule="evenodd" d="M196.215 49.4472V36.8113H193.818L192.184 42.0259L191.456 44.8126V36.8113H189.674V49.4472H191.724L193.407 43.6576L194.215 40.5662V49.4472H196.215Z" fill="#ffffff"/>
<path fill-rule="evenodd" clip-rule="evenodd" d="M203.776 49.4473V36.826H201.573L199.949 42.0308L199.216 44.8126V36.831H197.428V49.4473H199.478L201.226 43.6773L202.033 40.5613L201.974 49.4473H203.776Z" fill="#ffffff"/>
<path fill-rule="evenodd" clip-rule="evenodd" d="M213.174 51.1478H215.175V47.673H214.303V36.8113H212.308V47.6386H210.035V36.8113H208.035V49.4472H213.174V51.1478Z" fill="#ffffff"/>
<path fill-rule="evenodd" clip-rule="evenodd" d="M221.751 47.6386H218.299V43.9377H221.043V42.1389H218.299V38.615H221.751V36.8113H216.299V49.4472H221.751V47.6386Z" fill="#ffffff"/>
<path fill-rule="evenodd" clip-rule="evenodd" d="M229.252 49.4472V36.8113H227.257V42.2323H224.984V36.8113H222.983V49.4472H224.984V44.036H227.257V49.4472H229.252Z" fill="#ffffff"/>
<path fill-rule="evenodd" clip-rule="evenodd" d="M234.249 49.4472V38.615H236.343V36.8113H230.159V38.615H232.253V49.4472H234.249Z" fill="#ffffff"/>
<path fill-rule="evenodd" clip-rule="evenodd" d="M240.156 36.8113C241.142 36.8113 241.884 37.0767 242.384 37.6124C242.884 38.1481 243.132 38.9246 243.132 39.9371V41.5786C243.132 42.596 242.884 43.3676 242.384 43.8984C241.889 44.4292 241.146 44.6946 240.161 44.6946H239.21V49.4472H237.215V36.8113H240.156ZM240.161 38.615H239.21V42.9007H240.161C240.493 42.9007 240.735 42.8073 240.899 42.6255C241.057 42.4436 241.137 42.134 241.137 41.7015V39.8044C241.137 39.3719 241.057 39.0672 240.899 38.8853C240.735 38.7084 240.493 38.615 240.161 38.615Z" fill="#ffffff"/>
</svg>

<svg width="251" height="91" viewBox="0 0 251 91" fill="none" xmlns="http://www.w3.org/2000/svg"><path fill-rule="evenodd" clip-rule="evenodd" d="M21.65 32.908H.36V1.038h21.29v31.87zm27.229 48.969h21.523V54.03H48.879v27.847zM.36 81.995h7.445L36.631 54.03H.36v27.965zM70.401.695h-7.563L29.634 32.908H70.4V.695zM94.972 54.03L83.429 78.877v3h21.562V71.62h7.455v10.257h2.066c0-1.517.005-3.029-.005-4.546-.019-6.157-.059-12.319-.088-18.48v-.636h4.275V82.01h1.706V58.215h1.538V82.01h1.706V58.215h.69c.276-.04.558-.02.848-.02V82.01h1.706V58.215h1.539V82.01h1.706V58.215h.577v-.02h3.57c.113 0 .227.02.369.03v23.652h2.101V71.62h6.918v10.257h22.134v-3L154.225 54.03H94.972zm29.348-43.689c-.498.348-.913.641-1.425 1.004 1.025.606 1.883.611 2.869-.01-.517-.358-.971-.67-1.444-.994zm2.82-1.811l-1.829 1.18c.399.48.256 1.067.784 1.424.862-.656 1.158-1.459 1.045-2.604z" fill="#fff"/><path fill-rule="evenodd" clip-rule="evenodd" d="M122.391 30.857c.158-.73.158-1.488.212-2.237.148-1.957.272-3.91.434-5.868.148-1.805.336-3.616.498-5.422.084-.95.148-1.9.227-2.848.035-.387.005-.74-.35-1.023-.108-.084-.202-.26-.187-.382.054-.524-.276-.793-.72-1.013-.109-.054-.202-.137-.301-.21-1.41-1.033-1.721-2.903-.286-4.288a41.19 41.19 0 00-.271.925c.646.025 1.297.054 1.997.078l.7-1.796c.187.495.35.852.449 1.219.108.401.34.587.798.568.439-.025.873-.005 1.391-.005-.049-.328-.084-.563-.128-.813 1.232 1.224 1.089 3.118-.587 4.22-.488.322-.897.62-.863 1.228.005.102-.054.25-.143.308-.532.367-.399.851-.34 1.34.103.892.197 1.777.266 2.668.153 1.958.266 3.915.429 5.868.153 1.87.345 3.734.518 5.599.074.802.138 1.61.207 2.413.044.528-.049 1.032-.222 1.522h18.259L129.038 0h-8.959l-15.29 32.908h17.76c-.241-.656-.32-1.327-.158-2.051z" fill="#fff"/><path fill-rule="evenodd" clip-rule="evenodd" d="M121.642 8.506c-.424.905.044 2.085 1.104 2.633.178-.49.35-.96.528-1.459-.577-.416-1.11-.792-1.632-1.174zm76.155-7.468h-21.296v31.87h21.296V1.038zm44.91 0h-21.291v31.87h21.291V1.038zm0 62.942v-9.95h-21.291v8.795h-23.619V54.03h-21.296v27.847h57.365V91h17.1V63.98h-8.259zm-43.62-28.506c.346.354.856.526 1.54.526.698 0 1.228-.177 1.584-.53.362-.35.545-.84.545-1.47h-1.218c-.025.32-.109.536-.258.654-.148.118-.366.177-.653.177-.283 0-.486-.06-.619-.177-.134-.118-.213-.335-.233-.654h-1.238c.02.634.203 1.126.55 1.474zM3.734 43.658l.812-3.092v8.881H6.54V36.811H4.145L2.51 42.026l-.728 2.787V36.81H0v12.636h2.05l1.684-5.79zm10.289 5.789V36.811h-1.995v5.421H9.755v-5.42H7.759v12.635h1.996v-5.411h2.273v5.411h1.995zM21.07 38.36h.742c.99 0 1.738.27 2.238.8.5.531.753 1.303.753 2.315v3.431c0 1.008-.253 1.78-.753 2.31s-1.248.791-2.238.791h-.743v1.44h-1.995v-1.44h-.743c-.99 0-1.733-.26-2.233-.791-.5-.53-.753-1.303-.753-2.31v-3.43c0-1.013.253-1.785.753-2.315.5-.531 1.243-.802 2.233-.802h.743v-1.548h1.995v1.548zm-1.996 1.72h-.743c-.327 0-.574.098-.738.294-.168.197-.247.512-.247.95v3.7c0 .845.326 1.268.985 1.268h.743V40.08zm1.995 0v6.212h.738c.664 0 .995-.423.995-1.268v-3.7c0-.831-.331-1.244-.995-1.244h-.738zm5.655 8.68c-.525-.556-.788-1.338-.788-2.345v-6.571c0-1.013.263-1.794.788-2.345.525-.555 1.272-.83 2.253-.83.98 0 1.728.275 2.248.83.52.55.782 1.332.782 2.345v6.57c0 1.008-.262 1.79-.782 2.345-.52.55-1.268.826-2.248.826-.98 0-1.728-.275-2.253-.826zm1.208-2.222c0 .835.352 1.253 1.045 1.253.688 0 1.035-.418 1.035-1.253V39.72c0-.83-.347-1.244-1.035-1.244-.693 0-1.045.413-1.045 1.244v6.817zm10.543-8.926c.5.536.752 1.313.752 2.325v1.642c0 1.017-.252 1.789-.752 2.32-.495.53-1.238.796-2.229.796h-.945v4.752h-1.996V36.811h2.941c.986 0 1.729.266 2.229.801zm-1.248 2.192c0-.432-.08-.737-.238-.919-.158-.177-.406-.27-.738-.27h-.95v4.286h.95c.332 0 .58-.094.738-.276.159-.181.238-.491.238-.923v-1.898zm7.165 6.006l-1.48-8.999h-2.774v12.636h1.738v-8.915l1.496 8.915h1.891l1.382-9.058v9.058h2V36.811h-2.882l-1.371 9zm7.096-8.999h3.084l2.026 12.636h-2l-.347-2.29h-2.447l-.346 2.29h-1.996l2.026-12.636zm.574 8.626h1.926l-.965-6.36-.961 6.36zm12.453 5.711v-3.475h-.871V36.811h-1.996V47.64h-2.273V36.81h-2v12.636h5.14v1.7h2zm3.64-9.122l-.728 2.787V36.81h-1.788v12.636h2.05l1.689-5.79.807-3.09v8.88h1.995V36.811h-2.396l-1.63 5.215zM78.518 37.5c.52.55.783 1.331.783 2.344v6.57c0 1.008-.263 1.79-.783 2.345-.52.55-1.267.826-2.248.826-.975 0-1.728-.275-2.253-.826-.525-.555-.787-1.337-.787-2.344v-6.571c0-1.013.262-1.794.787-2.345.525-.555 1.278-.83 2.253-.83.98 0 1.728.275 2.248.83zm-1.213 2.22c0-.83-.346-1.243-1.035-1.243-.693 0-1.044.413-1.044 1.244v6.817c0 .835.351 1.253 1.044 1.253.689 0 1.035-.418 1.035-1.253V39.72zm7.562 9.727h2V36.811h-2v5.421h-2.273v-5.42h-1.996v12.635h1.996v-5.411h2.273v5.411zm5.486-5.411h2.273v5.411h1.995V36.811h-1.995v5.421h-2.273v-5.42h-1.996v12.635h1.996v-5.411zm6.377 4.724c-.524-.556-.787-1.338-.787-2.345v-6.571c0-1.013.263-1.794.788-2.345.525-.555 1.277-.83 2.253-.83.98 0 1.728.275 2.248.83.525.55.782 1.332.782 2.345v6.57c0 1.008-.257 1.79-.782 2.345-.52.55-1.268.826-2.248.826-.976 0-1.728-.275-2.253-.826zm1.214-2.222c0 .835.346 1.253 1.04 1.253.688 0 1.035-.418 1.035-1.253V39.72c0-.83-.347-1.244-1.035-1.244-.694 0-1.04.413-1.04 1.244v6.817zm8.908-4.306h-3.63v1.804h3.63v-1.804zm2.862-5.421h3.085l2.025 12.636h-1.995l-.347-2.29h-2.451l-.347 2.29h-1.995l2.025-12.636zm.58 8.626h1.926l-.966-6.36-.96 6.36zm11.581 4.01V36.811h-2v5.421h-2.273v-5.42h-1.996v12.635h1.996v-5.411h2.273v5.411h2zm2.991-12.636h3.085l.728 4.532 1.297 8.104h-1.995l-.347-2.29h-2.451l-.347 2.29h-1.995l2.025-12.636zm.579 8.626h1.927l-.847-5.564-.119-.796-.099.639-.862 5.72zm5.076 4.025c.594 0 1.079-.098 1.48-.27.273-.118.515-.27.699-.467.45-.497.693-1.317.728-2.468l.222-7.642h1.733v10.832h1.996V36.811h-5.724l-.223 9.55c-.01.295-.04.526-.079.698a.73.73 0 01-.218.393.704.704 0 01-.357.167 3.26 3.26 0 01-.569.04v1.803h.312zm14.954-.015V36.811h-2.397l-1.634 5.215-.728 2.787V36.81h-1.782v12.636h2.05l1.688-5.79.807-3.09v8.88h1.996zm2.724 0h2V38.615h2.095v-1.804h-6.19v1.804h2.095v10.832zm8.7-5.789l.807-3.092v8.881h2V36.811h-2.396l-1.634 5.215-.728 2.787V36.81h-1.783v12.636h2.05l1.684-5.79zm8.095-1.721c0 .418-.089.738-.272.964-.183.22-.441.334-.767.334-.337 0-.614-.108-.832-.32-.218-.21-.332-.516-.332-.923v-5.18h-1.996v5.347c0 .89.213 1.592.644 2.113.431.526 1.045.786 1.842.786.292 0 .594-.064.921-.187.322-.122.584-.294.792-.52v5.096h2.001V36.811h-2.001v5.126zm3.462 7.51h5.451V47.64h-3.451v-3.701h2.743v-1.8h-2.743v-3.523h3.451v-1.804h-5.451v12.636zm11.78-.683c.54-.55.807-1.332.807-2.35v-1.68h-1.996v1.804c0 .82-.346 1.233-1.034 1.233-.699 0-1.045-.413-1.045-1.233V39.72c0-.83.346-1.244 1.045-1.244.688 0 1.034.413 1.034 1.244v1.356h1.996v-1.233c0-1.018-.267-1.8-.807-2.35-.535-.55-1.298-.825-2.273-.825-.98 0-1.723.275-2.233.825-.505.55-.758 1.332-.758 2.35v6.57c0 1.018.253 1.8.758 2.35.51.546 1.253.82 2.233.82.975 0 1.738-.274 2.273-.82zm6.531-11.953l-2.614 5.505V36.81h-2.001v12.636h2.001V45.57l.619-1.155 1.946 5.033h2.05l-2.778-7.003 2.778-5.633h-2.001zm9.448 12.636V36.811h-2.397l-1.634 5.215-.728 2.787V36.81h-1.782v12.636h2.05l1.683-5.79.808-3.09v8.88h2zm7.561 0V36.826h-2.203l-1.624 5.205-.733 2.782V36.83h-1.788v12.616h2.05l1.748-5.77.807-3.116-.059 8.886h1.802zm9.398 1.701h2.001v-3.475h-.872V36.811h-1.995V47.64h-2.273V36.81h-2v12.636h5.139v1.7zm8.577-3.509h-3.452v-3.701h2.744v-1.8h-2.744v-3.523h3.452v-1.804h-5.452v12.636h5.452V47.64zm7.501 1.808V36.811h-1.995v5.421h-2.273v-5.42h-2.001v12.635h2.001v-5.411h2.273v5.411h1.995zm4.997 0V38.615h2.094v-1.804h-6.184v1.804h2.094v10.832h1.996zm5.907-12.636c.986 0 1.728.266 2.228.801.5.536.748 1.313.748 2.325v1.642c0 1.017-.248 1.789-.748 2.32-.495.53-1.238.796-2.223.796h-.951v4.752h-1.995V36.811h2.941zm.005 1.804h-.951v4.286h.951c.332 0 .574-.094.738-.276.158-.181.238-.491.238-.923v-1.898c0-.432-.08-.737-.238-.919-.164-.177-.406-.27-.738-.27z" fill="#fff"/></svg>
